X:1
T:Title
%%score ( 1 2 ) { 3 | 4 }
L:1/8
Q:1/4=93
M:4/4
K:Eb
V:1 treble nm="Grand Piano, Soprano"
V:2 treble 
V:3 treble nm="Choir Pad, Lord Send Me, M W Spencer"
V:4 bass 
V:1
 [EG]>[FA] [GB]>[Ac] [GB]2 [EG]2 | [GB]>[GB] [Fc]>[Ad] [Ge]4 | [Ac]>[Ad] [Ae]>[Ac] [GB]2 [EG]2 | %3
w: By~M.~W.~Spencer * * * * *|||
 [EG]>[EG] [B,F]>E [DF]4 | [EG]>[FA] [GB]>[Ac] [GB]2 [EG]2 | [GB]>[GB] [Ac]>[Ad] [Ge]4 | %6
w: |||
 [Ac]>[Ad] [Ae]>[Ac] [GB]2 [EG]2 | [EG]>[DF] [B,E]>[B,D] [B,E]4 | B6 z2 | e6 z2 | c6 z2 | B6 z2 | %12
w: ||||||
 B6 z2 | e6 z2 | [Ac]>[Ad] [Ae]>[Ac] [GB]2 E2 | [B,G]2 [B,F]2 [B,E]4- | [B,E]4 z4 |] %17
w: |||||
V:2
 x8 | x8 | x8 | x8 | x8 | x8 | x8 | x8 | G>G G>G G2 G2 | G2 A2 G2 z2 | A>A A>A A2 e2 | %11
 G2 F2 G2 z2 | G>G G>G G2 G2 | G2 A2 G2 z2 | x8 | x8 | x8 |] %17
V:3
 B,>B, E>E E2 B,2 | E>E[K:bass] B,>B, B,4 | E>E[K:treble] C>E E2 B,2 | B,>[K:bass]B, B,>G, B,4 | %4
 B,>B,[K:treble] E>E E2 B,2 | E>E[K:bass] B,>B, B,4 | E>E[K:treble] C>E E2 B,2 | %7
 B,>[K:bass]A, G,>F, G,4 | E>[K:treble]E E>E E2 z2 | B,2 E2 B,2 z2 | E>E E>E E2 z2 | E2 D2 E2 z2 | %12
 E>E E>E E2 z2 | B,2 C2 B,2 z2 | E>E C>E E2[K:bass] G,2 | B,2 A,2 G,4- | G,4 z4 |] %17
V:4
 E,>E, E,>E, E,2 E,2 | B,,>B,, B,,>B,, E,4 | A,>A, A,>A, E,2 E,2 | E,>E, D,>C, B,,4 | %4
 E,>E, E,>E, E,2 E,2 | B,,>B,, B,,>B,, E,4 | A,>A, A,>A, E,2 E,2 | B,,>B,, B,,>B,, E,4 | %8
 E,>E, E,>E, E,2 z2 | E,2 E,2 E,2 z2 | A,>A, A,>A, A,2 z2 | E,2 B,,2 E,2 z2 | E,>E, E,>E, E,2 z2 | %13
 E,2 E,2 E,2 z2 | A,>A, A,>A, E,2 C,2 | B,,2 B,,2 E,4- | E,4 z4 |] %17

